X: 5
T: The Maid In The Cherry Tree
R: reel
M: 4/4
L: 1/8
K: Amix
e2BA eABA|~G3B dGAG|~e3A eABA|dBGA BA~A2|
e2BA eABA|~G3B dGBG|cBcA B3G|1dBGA BAA2:|2dBGA BAAB|:
c2ec gceB|c2eg dBGB|c2ec gceg|dBGA BAAB|
c2ec gceB|cdeg dBGB|cBcA B3G|1dBGA BAAB:|2dBGA BAA2|


Tune 5195	Setting 23473

